assets/1. F-P/Military medal/Color/Military.Medal-color.svg

<svg width="100%" height="100%" viewBox="0 0 32 32" fill="none" xmlns="http://www.w3.org/2000/svg">
<path d="M19.0001 2V13.63L21.6101 12.21V2H19.0001Z" fill="url(#paint0_linear_18_1377)"/>
<path d="M19.0001 2V13.63L21.6101 12.21V2H19.0001Z" fill="url(#paint1_linear_18_1377)"/>
<path d="M10.4 2V12.21L13.01 13.63L13 2H10.4Z" fill="url(#paint2_linear_18_1377)"/>
<path d="M10.4 2V12.21L13.01 13.63L13 2H10.4Z" fill="url(#paint3_linear_18_1377)"/>
<path d="M10.4 2H7.11C6.5 2 6 2.51 6 3.14V8.93001C6 9.33001 6.21 9.71 6.55 9.91L10.4 12.21V2Z" fill="url(#paint4_linear_18_1377)"/>
<path d="M10.4 2H7.11C6.5 2 6 2.51 6 3.14V8.93001C6 9.33001 6.21 9.71 6.55 9.91L10.4 12.21V2Z" fill="url(#paint5_linear_18_1377)"/>
<path d="M21.61 2H24.9C25.51 2 26.01 2.51 26.01 3.14V8.93001C26.01 9.33001 25.8 9.71 25.46 9.91L21.61 12.21V2V2Z" fill="url(#paint6_linear_18_1377)"/>
<path d="M21.61 2H24.9C25.51 2 26.01 2.51 26.01 3.14V8.93001C26.01 9.33001 25.8 9.71 25.46 9.91L21.61 12.21V2V2Z" fill="url(#paint7_linear_18_1377)"/>
<path d="M21.61 2H24.9C25.51 2 26.01 2.51 26.01 3.14V8.93001C26.01 9.33001 25.8 9.71 25.46 9.91L21.61 12.21V2V2Z" fill="url(#paint8_linear_18_1377)"/>
<path d="M19 2H13V13.63H19V2Z" fill="url(#paint9_linear_18_1377)"/>
<path d="M19 2H13V13.63H19V2Z" fill="url(#paint10_linear_18_1377)"/>
<path d="M16 30C21.545 30 26.04 25.3931 26.04 19.7101C26.04 14.027 21.545 9.42004 16 9.42004C10.4551 9.42004 5.96002 14.027 5.96002 19.7101C5.96002 25.3931 10.4551 30 16 30Z" fill="url(#paint11_linear_18_1377)"/>
<path d="M16 30C21.545 30 26.04 25.3931 26.04 19.7101C26.04 14.027 21.545 9.42004 16 9.42004C10.4551 9.42004 5.96002 14.027 5.96002 19.7101C5.96002 25.3931 10.4551 30 16 30Z" fill="url(#paint12_linear_18_1377)"/>
<path d="M16 28.15C20.5453 28.15 24.23 24.3713 24.23 19.71C24.23 15.0487 20.5453 11.27 16 11.27C11.4547 11.27 7.77002 15.0487 7.77002 19.71C7.77002 24.3713 11.4547 28.15 16 28.15Z" fill="url(#paint13_linear_18_1377)"/>
<path d="M16 28.15C20.5453 28.15 24.23 24.3713 24.23 19.71C24.23 15.0487 20.5453 11.27 16 11.27C11.4547 11.27 7.77002 15.0487 7.77002 19.71C7.77002 24.3713 11.4547 28.15 16 28.15Z" fill="url(#paint14_radial_18_1377)"/>
<path d="M16 28.15C20.5453 28.15 24.23 24.3713 24.23 19.71C24.23 15.0487 20.5453 11.27 16 11.27C11.4547 11.27 7.77002 15.0487 7.77002 19.71C7.77002 24.3713 11.4547 28.15 16 28.15Z" fill="url(#paint15_radial_18_1377)"/>
<path d="M16.01 28.76C13.65 28.76 11.43 27.82 9.76999 26.11C8.09999 24.4 7.17999 22.13 7.17999 19.71C7.17999 17.29 8.09999 15.02 9.76999 13.31C13.21 9.77998 18.81 9.77998 22.26 13.31C25.7 16.84 25.7 22.58 22.26 26.11C20.58 27.82 18.36 28.76 16.01 28.76ZM16 11.89C14.05 11.89 12.09 12.65 10.61 14.18C9.16999 15.66 8.37999 17.62 8.37999 19.71C8.37999 21.8 9.16999 23.76 10.61 25.24C12.05 26.72 13.97 27.53 16 27.53C18.04 27.53 19.95 26.72 21.39 25.24C24.36 22.19 24.36 17.23 21.39 14.18C19.91 12.65 17.96 11.89 16 11.89Z" fill="url(#paint16_linear_18_1377)"/>
<g filter="url(#filter0_ii_18_1377)">
<path d="M16.61 15.66L17.44 17.38C17.54 17.58 17.73 17.73 17.95 17.76L19.8 18.04C20.35 18.12 20.58 18.82 20.17 19.22L18.89 20.5C18.7 20.69 18.64 20.97 18.72 21.23L19.31 22.94C19.51 23.51 18.95 24.05 18.4 23.81L16.26 22.85C16.09 22.77 15.89 22.77 15.72 22.85L13.58 23.81C13.04 24.05 12.47 23.51 12.67 22.94L13.26 21.23C13.35 20.97 13.28 20.69 13.09 20.5L11.81 19.22C11.41 18.82 11.63 18.12 12.18 18.04L14.03 17.76C14.25 17.73 14.44 17.59 14.54 17.38L15.37 15.66C15.64 15.14 16.36 15.14 16.61 15.66Z" fill="url(#paint17_linear_18_1377)"/>
<path d="M16.61 15.66L17.44 17.38C17.54 17.58 17.73 17.73 17.95 17.76L19.8 18.04C20.35 18.12 20.58 18.82 20.17 19.22L18.89 20.5C18.7 20.69 18.64 20.97 18.72 21.23L19.31 22.94C19.51 23.51 18.95 24.05 18.4 23.81L16.26 22.85C16.09 22.77 15.89 22.77 15.72 22.85L13.58 23.81C13.04 24.05 12.47 23.51 12.67 22.94L13.26 21.23C13.35 20.97 13.28 20.69 13.09 20.5L11.81 19.22C11.41 18.82 11.63 18.12 12.18 18.04L14.03 17.76C14.25 17.73 14.44 17.59 14.54 17.38L15.37 15.66C15.64 15.14 16.36 15.14 16.61 15.66Z" fill="url(#paint18_radial_18_1377)"/>
</g>
<defs>
<filter id="filter0_ii_18_1377" x="11.3054" y="14.97" width="9.22362" height="8.89851" filterUnits="userSpaceOnUse" color-interpolation-filters="sRGB">
<feFlood flood-opacity="0" result="BackgroundImageFix"/>
<feBlend mode="normal" in="SourceGraphic" in2="BackgroundImageFix" result="shape"/>
<feColorMatrix in="SourceAlpha" type="matrix" values="0 0 0 0 0 0 0 0 0 0 0 0 0 0 0 0 0 0 127 0" result="hardAlpha"/>
<feOffset dx="-0.3" dy="-0.3"/>
<feGaussianBlur stdDeviation="0.375"/>
<feComposite in2="hardAlpha" operator="arithmetic" k2="-1" k3="1"/>
<feColorMatrix type="matrix" values="0 0 0 0 0.290196 0 0 0 0 0.14902 0 0 0 0 0.14902 0 0 0 1 0"/>
<feBlend mode="normal" in2="shape" result="effect1_innerShadow_18_1377"/>
<feColorMatrix in="SourceAlpha" type="matrix" values="0 0 0 0 0 0 0 0 0 0 0 0 0 0 0 0 0 0 127 0" result="hardAlpha"/>
<feOffset dx="0.2" dy="-0.2"/>
<feGaussianBlur stdDeviation="0.075"/>
<feComposite in2="hardAlpha" operator="arithmetic" k2="-1" k3="1"/>
<feColorMatrix type="matrix" values="0 0 0 0 0.517647 0 0 0 0 0.372549 0 0 0 0 0.34902 0 0 0 1 0"/>
<feBlend mode="normal" in2="effect1_innerShadow_18_1377" result="effect2_innerShadow_18_1377"/>
</filter>
<linearGradient id="paint0_linear_18_1377" x1="20.3051" y1="2" x2="20.3051" y2="13.63" gradientUnits="userSpaceOnUse">
<stop stop-color="#D6C6E5"/>
<stop offset="1" stop-color="#D3BBE0"/>
</linearGradient>
<linearGradient id="paint1_linear_18_1377" x1="20.3051" y1="2" x2="20.3051" y2="3.58308" gradientUnits="userSpaceOnUse">
<stop stop-color="#CCC1D8"/>
<stop offset="1" stop-color="#CCC1D8" stop-opacity="0"/>
</linearGradient>
<linearGradient id="paint2_linear_18_1377" x1="11.705" y1="2" x2="11.705" y2="13.63" gradientUnits="userSpaceOnUse">
<stop stop-color="#D6C6E5"/>
<stop offset="1" stop-color="#D3BBE0"/>
</linearGradient>
<linearGradient id="paint3_linear_18_1377" x1="11.705" y1="2" x2="11.705" y2="3.58308" gradientUnits="userSpaceOnUse">
<stop stop-color="#CCC1D8"/>
<stop offset="1" stop-color="#CCC1D8" stop-opacity="0"/>
</linearGradient>
<linearGradient id="paint4_linear_18_1377" x1="11.6015" y1="2" x2="11.6015" y2="12.21" gradientUnits="userSpaceOnUse">
<stop stop-color="#3EA2F8"/>
<stop offset="1" stop-color="#3363C1"/>
</linearGradient>
<linearGradient id="paint5_linear_18_1377" x1="7.76788" y1="11.1078" x2="8.43078" y2="10.003" gradientUnits="userSpaceOnUse">
<stop stop-color="#3856BB"/>
<stop offset="1" stop-color="#3856BB" stop-opacity="0"/>
</linearGradient>
<linearGradient id="paint6_linear_18_1377" x1="27.2115" y1="2" x2="27.2116" y2="12.21" gradientUnits="userSpaceOnUse">
<stop stop-color="#3EA2F8"/>
<stop offset="1" stop-color="#3363C1"/>
</linearGradient>
<linearGradient id="paint7_linear_18_1377" x1="27.3078" y1="6.66873" x2="24.6246" y2="6.66873" gradientUnits="userSpaceOnUse">
<stop stop-color="#53BAFF"/>
<stop offset="1" stop-color="#53BAFF" stop-opacity="0"/>
</linearGradient>
<linearGradient id="paint8_linear_18_1377" x1="24.7193" y1="11.2341" x2="23.9775" y2="9.90827" gradientUnits="userSpaceOnUse">
<stop stop-color="#3856BB"/>
<stop offset="1" stop-color="#3856BB" stop-opacity="0"/>
</linearGradient>
<linearGradient id="paint9_linear_18_1377" x1="16" y1="2" x2="16" y2="13.63" gradientUnits="userSpaceOnUse">
<stop stop-color="#F2415A"/>
<stop offset="1" stop-color="#E83973"/>
</linearGradient>
<linearGradient id="paint10_linear_18_1377" x1="16" y1="2" x2="16" y2="3.24768" gradientUnits="userSpaceOnUse">
<stop stop-color="#EB3A52"/>
<stop offset="1" stop-color="#EB3A52" stop-opacity="0"/>
</linearGradient>
<linearGradient id="paint11_linear_18_1377" x1="21.3666" y1="16.0625" x2="13.3041" y2="29.6875" gradientUnits="userSpaceOnUse">
<stop stop-color="#F4C654"/>
<stop offset="1" stop-color="#DC9729"/>
</linearGradient>
<linearGradient id="paint12_linear_18_1377" x1="12.4916" y1="30.5" x2="14.8666" y2="17.0625" gradientUnits="userSpaceOnUse">
<stop stop-color="#FA8547"/>
<stop offset="1" stop-color="#FA8547" stop-opacity="0"/>
</linearGradient>
<linearGradient id="paint13_linear_18_1377" x1="12.1955" y1="18.6397" x2="24.4724" y2="18.6397" gradientUnits="userSpaceOnUse">
<stop stop-color="#FAA945"/>
<stop offset="1" stop-color="#EC9936"/>
</linearGradient>
<radialGradient id="paint14_radial_18_1377" cx="0" cy="0" r="1" gradientUnits="userSpaceOnUse" gradientTransform="translate(19.191 19.71) rotate(180) scale(10.9797 9.59463)">
<stop offset="0.843882" stop-color="#F7B44D" stop-opacity="0"/>
<stop offset="1" stop-color="#F7B44D"/>
</radialGradient>
<radialGradient id="paint15_radial_18_1377" cx="0" cy="0" r="1" gradientUnits="userSpaceOnUse" gradientTransform="translate(13.8633 19.71) scale(10.3667 9.34393)">
<stop offset="0.826283" stop-color="#D2801F" stop-opacity="0"/>
<stop offset="1" stop-color="#D2801F"/>
</radialGradient>
<linearGradient id="paint16_linear_18_1377" x1="24.0554" y1="18.1301" x2="16.01" y2="18.1301" gradientUnits="userSpaceOnUse">
<stop stop-color="#F9A842"/>
<stop offset="1" stop-color="#FAA742"/>
<stop offset="1" stop-color="#FAA742"/>
</linearGradient>
<linearGradient id="paint17_linear_18_1377" x1="15.1423" y1="17.7896" x2="18.3634" y2="24.1475" gradientUnits="userSpaceOnUse">
<stop stop-color="#864B60"/>
<stop offset="1" stop-color="#5D3247"/>
</linearGradient>
<radialGradient id="paint18_radial_18_1377" cx="0" cy="0" r="1" gradientUnits="userSpaceOnUse" gradientTransform="translate(18.3666 16.8125) rotate(130.746) scale(2.68113 3.65655)">
<stop offset="0.200652" stop-color="#602543"/>
<stop offset="1" stop-color="#602543" stop-opacity="0"/>
</radialGradient>
</defs>
</svg>

<svg width="100%" height="100%" viewBox="0 0 32 32" xmlns="http://www.w3.org/2000/svg"><path fill="url(#a)" d="M19 2v11.63l2.61-1.42V2z"/><path fill="url(#b)" d="M19 2v11.63l2.61-1.42V2z"/><path fill="url(#c)" d="M10.4 2v10.21l2.61 1.42L13 2z"/><path fill="url(#d)" d="M10.4 2v10.21l2.61 1.42L13 2z"/><path fill="url(#e)" d="M10.4 2H7.11C6.5 2 6 2.51 6 3.14v5.79c0 .4.21.78.55.98l3.85 2.3z"/><path fill="url(#f)" d="M10.4 2H7.11C6.5 2 6 2.51 6 3.14v5.79c0 .4.21.78.55.98l3.85 2.3z"/><path fill="url(#g)" d="M21.61 2h3.29c.61 0 1.11.51 1.11 1.14v5.79c0 .4-.21.78-.55.98l-3.85 2.3z"/><path fill="url(#h)" d="M21.61 2h3.29c.61 0 1.11.51 1.11 1.14v5.79c0 .4-.21.78-.55.98l-3.85 2.3z"/><path fill="url(#i)" d="M21.61 2h3.29c.61 0 1.11.51 1.11 1.14v5.79c0 .4-.21.78-.55.98l-3.85 2.3z"/><path fill="url(#j)" d="M19 2h-6v11.63h6z"/><path fill="url(#k)" d="M19 2h-6v11.63h6z"/><path fill="url(#l)" d="M16 30c5.545 0 10.04-4.607 10.04-10.29S21.545 9.42 16 9.42 5.96 14.027 5.96 19.71 10.455 30 16 30"/><path fill="url(#m)" d="M16 30c5.545 0 10.04-4.607 10.04-10.29S21.545 9.42 16 9.42 5.96 14.027 5.96 19.71 10.455 30 16 30"/><path fill="url(#n)" d="M16 28.15c4.545 0 8.23-3.779 8.23-8.44s-3.685-8.44-8.23-8.44-8.23 3.779-8.23 8.44 3.685 8.44 8.23 8.44"/><path fill="url(#o)" d="M16 28.15c4.545 0 8.23-3.779 8.23-8.44s-3.685-8.44-8.23-8.44-8.23 3.779-8.23 8.44 3.685 8.44 8.23 8.44"/><path fill="url(#p)" d="M16 28.15c4.545 0 8.23-3.779 8.23-8.44s-3.685-8.44-8.23-8.44-8.23 3.779-8.23 8.44 3.685 8.44 8.23 8.44"/><path fill="url(#q)" d="M16.01 28.76c-2.36 0-4.58-.94-6.24-2.65a9.1 9.1 0 0 1-2.59-6.4c0-2.42.92-4.69 2.59-6.4a8.69 8.69 0 0 1 12.49 0c3.44 3.53 3.44 9.27 0 12.8-1.68 1.71-3.9 2.65-6.25 2.65M16 11.89c-1.95 0-3.91.76-5.39 2.29a7.87 7.87 0 0 0-2.23 5.53c0 2.09.79 4.05 2.23 5.53A7.48 7.48 0 0 0 16 27.53c2.04 0 3.95-.81 5.39-2.29 2.97-3.05 2.97-8.01 0-11.06A7.46 7.46 0 0 0 16 11.89"/><g filter="url(#r)"><path fill="url(#s)" d="m16.61 15.66.83 1.72c.1.2.29.35.51.38l1.85.28c.55.08.78.78.37 1.18l-1.28 1.28c-.19.19-.25.47-.17.73l.59 1.71c.2.57-.36 1.11-.91.87l-2.14-.96a.64.64 0 0 0-.54 0l-2.14.96c-.54.24-1.11-.3-.91-.87l.59-1.71c.09-.26.02-.54-.17-.73l-1.28-1.28c-.4-.4-.18-1.1.37-1.18l1.85-.28c.22-.03.41-.17.51-.38l.83-1.72c.27-.52.99-.52 1.24 0"/><path fill="url(#t)" d="m16.61 15.66.83 1.72c.1.2.29.35.51.38l1.85.28c.55.08.78.78.37 1.18l-1.28 1.28c-.19.19-.25.47-.17.73l.59 1.71c.2.57-.36 1.11-.91.87l-2.14-.96a.64.64 0 0 0-.54 0l-2.14.96c-.54.24-1.11-.3-.91-.87l.59-1.71c.09-.26.02-.54-.17-.73l-1.28-1.28c-.4-.4-.18-1.1.37-1.18l1.85-.28c.22-.03.41-.17.51-.38l.83-1.72c.27-.52.99-.52 1.24 0"/></g><defs><linearGradient id="a" x1="20.305" x2="20.305" y1="2" y2="13.63" gradientUnits="userSpaceOnUse"><stop stop-color="#D6C6E5"/><stop offset="1" stop-color="#D3BBE0"/></linearGradient><linearGradient id="b" x1="20.305" x2="20.305" y1="2" y2="3.583" gradientUnits="userSpaceOnUse"><stop stop-color="#CCC1D8"/><stop offset="1" stop-color="#CCC1D8" stop-opacity="0"/></linearGradient><linearGradient id="c" x1="11.705" x2="11.705" y1="2" y2="13.63" gradientUnits="userSpaceOnUse"><stop stop-color="#D6C6E5"/><stop offset="1" stop-color="#D3BBE0"/></linearGradient><linearGradient id="d" x1="11.705" x2="11.705" y1="2" y2="3.583" gradientUnits="userSpaceOnUse"><stop stop-color="#CCC1D8"/><stop offset="1" stop-color="#CCC1D8" stop-opacity="0"/></linearGradient><linearGradient id="e" x1="11.601" x2="11.601" y1="2" y2="12.21" gradientUnits="userSpaceOnUse"><stop stop-color="#3EA2F8"/><stop offset="1" stop-color="#3363C1"/></linearGradient><linearGradient id="f" x1="7.768" x2="8.431" y1="11.108" y2="10.003" gradientUnits="userSpaceOnUse"><stop stop-color="#3856BB"/><stop offset="1" stop-color="#3856BB" stop-opacity="0"/></linearGradient><linearGradient id="g" x1="27.212" x2="27.212" y1="2" y2="12.21" gradientUnits="userSpaceOnUse"><stop stop-color="#3EA2F8"/><stop offset="1" stop-color="#3363C1"/></linearGradient><linearGradient id="h" x1="27.308" x2="24.625" y1="6.669" y2="6.669" gradientUnits="userSpaceOnUse"><stop stop-color="#53BAFF"/><stop offset="1" stop-color="#53BAFF" stop-opacity="0"/></linearGradient><linearGradient id="i" x1="24.719" x2="23.977" y1="11.234" y2="9.908" gradientUnits="userSpaceOnUse"><stop stop-color="#3856BB"/><stop offset="1" stop-color="#3856BB" stop-opacity="0"/></linearGradient><linearGradient id="j" x1="16" x2="16" y1="2" y2="13.63" gradientUnits="userSpaceOnUse"><stop stop-color="#F2415A"/><stop offset="1" stop-color="#E83973"/></linearGradient><linearGradient id="k" x1="16" x2="16" y1="2" y2="3.248" gradientUnits="userSpaceOnUse"><stop stop-color="#EB3A52"/><stop offset="1" stop-color="#EB3A52" stop-opacity="0"/></linearGradient><linearGradient id="l" x1="21.367" x2="13.304" y1="16.063" y2="29.688" gradientUnits="userSpaceOnUse"><stop stop-color="#F4C654"/><stop offset="1" stop-color="#DC9729"/></linearGradient><linearGradient id="m" x1="12.492" x2="14.867" y1="30.5" y2="17.063" gradientUnits="userSpaceOnUse"><stop stop-color="#FA8547"/><stop offset="1" stop-color="#FA8547" stop-opacity="0"/></linearGradient><linearGradient id="n" x1="12.195" x2="24.472" y1="18.64" y2="18.64" gradientUnits="userSpaceOnUse"><stop stop-color="#FAA945"/><stop offset="1" stop-color="#EC9936"/></linearGradient><linearGradient id="q" x1="24.055" x2="16.01" y1="18.13" y2="18.13" gradientUnits="userSpaceOnUse"><stop stop-color="#F9A842"/><stop offset="1" stop-color="#FAA742"/><stop offset="1" stop-color="#FAA742"/></linearGradient><linearGradient id="s" x1="15.142" x2="18.363" y1="17.79" y2="24.148" gradientUnits="userSpaceOnUse"><stop stop-color="#864B60"/><stop offset="1" stop-color="#5D3247"/></linearGradient><radialGradient id="o" cx="0" cy="0" r="1" gradientTransform="matrix(-10.9797 0 0 -9.59463 19.191 19.71)" gradientUnits="userSpaceOnUse"><stop offset=".844" stop-color="#F7B44D" stop-opacity="0"/><stop offset="1" stop-color="#F7B44D"/></radialGradient><radialGradient id="p" cx="0" cy="0" r="1" gradientTransform="matrix(10.3667 0 0 9.34393 13.863 19.71)" gradientUnits="userSpaceOnUse"><stop offset=".826" stop-color="#D2801F" stop-opacity="0"/><stop offset="1" stop-color="#D2801F"/></radialGradient><radialGradient id="t" cx="0" cy="0" r="1" gradientTransform="rotate(130.746 5.33 12.616)scale(2.68113 3.65655)" gradientUnits="userSpaceOnUse"><stop offset=".201" stop-color="#602543"/><stop offset="1" stop-color="#602543" stop-opacity="0"/></radialGradient><filter id="r" width="9.224" height="8.899" x="11.305" y="14.97" color-interpolation-filters="sRGB" filterUnits="userSpaceOnUse"><feFlood flood-opacity="0" result="BackgroundImageFix"/><feBlend in="SourceGraphic" in2="BackgroundImageFix" result="shape"/><feColorMatrix in="SourceAlpha" result="hardAlpha" values="0 0 0 0 0 0 0 0 0 0 0 0 0 0 0 0 0 0 127 0"/><feOffset dx="-.3" dy="-.3"/><feGaussianBlur stdDeviation=".375"/><feComposite in2="hardAlpha" k2="-1" k3="1" operator="arithmetic"/><feColorMatrix values="0 0 0 0 0.290196 0 0 0 0 0.14902 0 0 0 0 0.14902 0 0 0 1 0"/><feBlend in2="shape" result="effect1_innerShadow_18_1377"/><feColorMatrix in="SourceAlpha" result="hardAlpha" values="0 0 0 0 0 0 0 0 0 0 0 0 0 0 0 0 0 0 127 0"/><feOffset dx=".2" dy="-.2"/><feGaussianBlur stdDeviation=".075"/><feComposite in2="hardAlpha" k2="-1" k3="1" operator="arithmetic"/><feColorMatrix values="0 0 0 0 0.517647 0 0 0 0 0.372549 0 0 0 0 0.34902 0 0 0 1 0"/><feBlend in2="effect1_innerShadow_18_1377" result="effect2_innerShadow_18_1377"/></filter></defs></svg>
